X: 9040
T: Da Eye Wifie
R: reel
M: 4/4
K: Dmajor
|:D2FD EFGE|FD (3DDD DFED|B,E (3EEE EFGA|BFAF Egfe|
fd (3ddd BAFB|Adcd BAFD|E3 E AFE2|1 DB,A,B, D4:|2 DB,A,B, D2fg||
|:fd (3ddd cdBd|Adcd fdcd|Bdgd Adfd|Acec Aage|
fd (3ddd cdBd|Adcd BAFD|E3 E AFE2|1 DB,A,B, D2 fg:|2 DB,A,B, D4||

